build/Karasa-Jaga/scalable/emblems/emblem-default-symbolic.svg

<svg height="16" width="16" xmlns="http://www.w3.org/2000/svg"><path d="m8 .6875c-3.9315186 0-7.125 3.1622314-7.125 7.09375 0 3.931519 3.1934814 7.125 7.125 7.125 3.931519 0 7.125-3.193481 7.125-7.125 0-3.9315186-3.193481-7.09375-7.125-7.09375zm2.90625 3.53125 1.625 1.40625-6.09375 6.15625-2.96875-2.625 1.15625-1.6875 1.6875 1.46875z" fill="#bebebe"/></svg>

<?xml version="1.0" encoding="UTF-8" standalone="no"?>
<!-- Created with Inkscape (http://www.inkscape.org/) -->

<svg
   xmlns:dc="http://purl.org/dc/elements/1.1/"
   xmlns:cc="http://creativecommons.org/ns#"
   xmlns:rdf="http://www.w3.org/1999/02/22-rdf-syntax-ns#"
   xmlns:svg="http://www.w3.org/2000/svg"
   xmlns="http://www.w3.org/2000/svg"
   xmlns:sodipodi="http://sodipodi.sourceforge.net/DTD/sodipodi-0.dtd"
   xmlns:inkscape="http://www.inkscape.org/namespaces/inkscape"
   id="svg7384"
   height="16"
   width="16"
   version="1.1"
   inkscape:version="0.48.3.1 r9886"
   sodipodi:docname="emblem-default-symbolic.svg">
  <defs
     id="defs8453" />
  <sodipodi:namedview
     pagecolor="#ffffff"
     bordercolor="#666666"
     borderopacity="1"
     objecttolerance="10"
     gridtolerance="10"
     guidetolerance="10"
     inkscape:pageopacity="0"
     inkscape:pageshadow="2"
     inkscape:window-width="1366"
     inkscape:window-height="714"
     id="namedview8451"
     showgrid="false"
     inkscape:zoom="1.84375"
     inkscape:cx="-94.569894"
     inkscape:cy="-29.184729"
     inkscape:window-x="0"
     inkscape:window-y="22"
     inkscape:window-maximized="1"
     inkscape:current-layer="svg7384" />
  <metadata
     id="metadata90">
    <rdf:RDF>
      <cc:Work
         rdf:about="">
        <dc:format>image/svg+xml</dc:format>
        <dc:type
           rdf:resource="http://purl.org/dc/dcmitype/StillImage" />
        <dc:title>Gnome Symbolic Icon Theme</dc:title>
      </cc:Work>
    </rdf:RDF>
  </metadata>
  <title
     id="title9167">Gnome Symbolic Icon Theme</title>
  <path
     style="fill:#bebebe;fill-opacity:1;stroke:none"
     d="M 8 0.6875 C 4.0684814 0.6875 0.875 3.8497314 0.875 7.78125 C 0.875 11.712769 4.0684814 14.90625 8 14.90625 C 11.931519 14.90625 15.125 11.712769 15.125 7.78125 C 15.125 3.8497314 11.931519 0.6875 8 0.6875 z M 10.90625 4.21875 L 12.53125 5.625 L 6.4375 11.78125 L 3.46875 9.15625 L 4.625 7.46875 L 6.3125 8.9375 L 10.90625 4.21875 z "
     id="path8554" />
</svg>
